X: 4
T: The Hag At The Spinning Wheel
R: jig
M: 6/8
L: 1/8
K: Gmaj
GGG ABG | BcA B2 D | G2 G BAG | F2 G AFD |GGG ABG | BcA Bdg | fed cAF | AGF G2 D :| BAG AFD | D3 AFD | D3 AFD| EFG ABc |BAG AFD | D3 AFD | ded cAF | AGF G2 :|GBd gba | gdB ecA | dBG cAG | F2 G AFD |GBd gba | gdB ecA | fed cAF | AGF G2 :|BAG Afd | Agd Afd | Agd AFD | EFG ABc |BAG AFD | D3 AFD | ded cAF | AGF G2 :|


Tune 2254	Setting 25872

